packages/ui-icons/svg/Solid/page-up.svg

<svg viewBox="0 0 1920 1920" xmlns="http://www.w3.org/2000/svg">
    <path d="M169 225.88h1581.167V0H169v225.88Zm0 338.823h1581.167V338.708H169v225.995Zm261.13 649.758 159.811 159.697 258.86-258.972V1920h225.993v-804.814l258.86 258.972 159.811-159.697L961.74 682.85l-531.61 531.611Z" fill-rule="evenodd"/>
</svg>

<svg viewBox="0 0 1920 1920" version="1.1" xmlns="http://www.w3.org/2000/svg">
    <path d="M169,225.88 L1750.167,225.88 L1750.167,0 L169,0 L169,225.88 Z M169,564.703 L1750.167,564.703 L1750.167,338.708 L169,338.708 L169,564.703 Z M430.13,1214.461 L589.941,1374.158 L848.801,1115.186 L848.801,1920 L1074.794,1920 L1074.794,1115.186 L1333.654,1374.158 L1493.465,1214.461 L961.74,682.85 L430.13,1214.461 Z" stroke="none" stroke-width="1" fill-rule="evenodd"/>
</svg>
